X:11
T: SISCH NO NIT LANG
N: E1008
O: Europa, Mitteleuropa, Schweiz
R: Tanz - Lied, Liebe, Klage
M: 2/4
L: 1/16
K: F
C2 | F3GA2B2 | c2c=Bc2
f2 | c2c=Bc2G2 | A4z2
C2 | F3GA2B2 | c2c=Bc2
f2 | c2BAB2G2 | F4z2

@@@ Tune index: 4695
